src/4-icons/document.svg

<svg width="260" height="260" viewBox="0 0 260 260" fill="none" xmlns="http://www.w3.org/2000/svg">
<path d="M75 107C75 103.134 78.134 100 82 100H178C181.866 100 185 103.134 185 107C185 110.866 181.866 114 178 114H82C78.134 114 75 110.866 75 107Z" fill="black"/>
<path d="M82 132C78.134 132 75 135.134 75 139C75 142.866 78.134 146 82 146H178C181.866 146 185 142.866 185 139C185 135.134 181.866 132 178 132H82Z" fill="black"/>
<path d="M75 171C75 167.134 78.134 164 82 164H178C181.866 164 185 167.134 185 171C185 174.866 181.866 178 178 178H82C78.134 178 75 174.866 75 171Z" fill="black"/>
<path fill-rule="evenodd" clip-rule="evenodd" d="M35 257C35 258.657 36.3431 260 38 260H222C223.657 260 225 258.657 225 257V3C225 1.34314 223.657 0 222 0H86L35 51V257ZM49 74V246H211V14H109V67C109 70.866 105.866 74 102 74H49ZM49 60H95V14L49 60Z" fill="black"/>
</svg>

<svg width="260" height="260" viewBox="0 0 260 260" fill="none" xmlns="http://www.w3.org/2000/svg"><path d="M75 107a7 7 0 0 1 7-7h96a7 7 0 1 1 0 14H82a7 7 0 0 1-7-7Zm7 25a7 7 0 1 0 0 14h96a7 7 0 1 0 0-14H82Zm-7 39a7 7 0 0 1 7-7h96a7 7 0 1 1 0 14H82a7 7 0 0 1-7-7Z" fill="#000"/><path fill-rule="evenodd" clip-rule="evenodd" d="M35 257a3 3 0 0 0 3 3h184a3 3 0 0 0 3-3V3a3 3 0 0 0-3-3H86L35 51v206ZM49 74v172h162V14H109v53a7 7 0 0 1-7 7H49Zm0-14h46V14L49 60Z" fill="#000"/></svg>
